X: 3084
T: Bear Dance, The
R: polka
M: 2/4
K: Bminor
|:fB Bf/e/|fB B>c|dd cd|e2- ed/e/|
ff ee|dd c2|B/c/d cA|B2 B2:|
|:B/c/d B/c/d|cA A2|B/c/d B/c/d|e2- ed/e/|
ff ee|dd c2|B/c/d cA|B2 B2:|

